dist/svgs/unicons/line/parking-circle.svg

<svg xmlns="http://www.w3.org/2000/svg" data-name="Layer 1" viewBox="0 0 24 24"><path d="M13 7h-3a1 1 0 00-1 1v8a1 1 0 002 0v-2h2a3 3 0 003-3v-1a3 3 0 00-3-3zm1 4a1 1 0 01-1 1h-2V9h2a1 1 0 011 1zm-2-9a10 10 0 1010 10A10 10 0 0012 2zm0 18a8 8 0 118-8 8 8 0 01-8 8z"/></svg>

<svg xmlns="http://www.w3.org/2000/svg" data-name="Layer 1" viewBox="0 0 24 24"><path d="M13,7H10A1,1,0,0,0,9,8v8a1,1,0,0,0,2,0V14h2a3,3,0,0,0,3-3V10A3,3,0,0,0,13,7Zm1,4a1,1,0,0,1-1,1H11V9h2a1,1,0,0,1,1,1ZM12,2A10,10,0,1,0,22,12,10,10,0,0,0,12,2Zm0,18a8,8,0,1,1,8-8A8,8,0,0,1,12,20Z"/></svg>
